X: 21684
T: Kiloran Bay
R: jig
M: 6/8
K: Amixolydian
|:a|e>c A A2A|c<ea f2e|c2c c<e f|e>c A B2a|
e>c A A2A|c<ea f2e|a2f e>B c|A2 A A2:|
|:a|f>ea f>e c|A2A a2e|c2c c<e f|e>c A B2a|
f>ea f>e c|A2A f2e|a2f e>B c|A2 A A2:|
|:a|A>B c c<e A|c<ea f2e|c2c c<e f|e>c A B2e|
A>B c c<e A|c<ea f2e|a2f e>B c|A2AA2:|
|:f<g|a>e e f>e c|A2Aa2e|c2c c<e f|e>c A B2 g|
a>e e f>e c|A2A f2e|a2f e>B c|A2AA2:|

